X:5730
T:Slunk Jerks polska
A:Dalarna, Bingsj
D:Falu Spelmanslag 'i stten'
M:3/4
O:Sweden
R:Polska
Z:Richard Robinson 
%%TUNEURL: http://www.leeds.ac.uk/music/Info/RRTuneBk/gettune/00000c16.html
%%ID:00000c16
K:D
A>c e2-e2 | e/f/e/c/ A>B AG| F2 A/B/A/F/ Ad| f>e dc/d/ e4|\
A>c e2-e2 | e/f/e/c/ A>B AG|
F2 A/B/A/F/ Ad| fe/f/ d3 A::\
d>f a2-a2-|{b}af/d/ g2b2|
a>g fg ec| d>e (3fgf e2|\
c>e a2-a2-|{b}af/d/ g2b2| a>g fg ec| d2 d4:|
